X:1
T:Shearing in a Bar
M:2/4
L:1/8
K:D
 A| FF FF| AD DD| ED DB,| D3| F| GG GB| AF DE| FE EE| E3 A| FF FF|\
 AD DD| ED DB,| D2 DE| FF FD| EF GE| DD CE| D3 D| GG GG| GB BB| AF DF|\
 A3 F| AA AA| BA AA| BE EF| E3 A| FF FF| FD DD| ED DB,| D2D-E| FF FD|\
 EF GE| DD CE| D3||

